X:1774
T:The Green Island
M:C|
L:1/8
B:O'Neill's 1774
R:Hornpipe
Z:"Transcribed by Bob Safranek, rjs@gsp.org"
K:D
   A2 | dcdA Bcde | gfed cBAG  | FAdf gfed | cedB A2 (Bc) |
        dAeA fAgA | agfe dcBA  | dfeg faeg | f2 d2 d2    :|
|: fg | agfe defg | bagf e2 ed | cAeA gfed | cedB A2 (Bc) |
        dAeA fAgA | agfe dcBA  | Bdce dgeg | f2 d2 d2    :|


